X: 1921
T: Ted Ward's Jig
B: australian traditional tunes wiki
M:6/8
L:1/8
Q: 3/8=100
K:D
V:1 
F|:"D"A2A FGA|"G"B2B "A7"F2G|"D"A2Ad2e|"D"f3fdf|"G"g3"D"f3|"A7"e3"D"d3|"A7"cdeB2c|1"D"d3-d2F:|2"D"d3-d2e||
|:"D"f2d dcB|"A7"A3-A2e|"D"f2d dcB|"A7"A3-A2f|"G"g3"D"f3|"A7"e3"D"d3|"A7"cdeB2c|1"D"d3-d2e:|2"D"d3-d3||
% abcbook-tune_id 6342d5be1e13ba01dd002f24


% abcbook-boost 0
% abcbook-tablature 
% abcbook-transpose 
% abcbook-lastupdated 1665324488019
% abcbook-soundfonts 
% abcbook-repeats 1
% NFF Book 2013

